X: 14986
T: Genevieve's
R: waltz
M: 3/4
K: Amajor
E|:cdc BAG|ABc E2E|FAd cEc|cBA B2E|
cdc BAG|ABc E2E|FAd cEc|1 BAG A2E:|2 BAG A2e||
fff fga|e2d cBA|ded cBA|FGA B2e|
fff fga|e2d cBA|ded cBA|FAG A2e|
fff fga|e2d cBA|df/g/a ecA|FGA B2E|
cdc BAG|ABc E2E|FAd cEc|BAG A3||

